img/advantages__icon--03.svg

<svg width="61" height="73" viewBox="0 0 61 73" fill="none" xmlns="http://www.w3.org/2000/svg">
<g filter="url(#filter0_d)">
<path d="M46.8358 22.053C46.8355 22.0247 46.8341 21.9993 46.8312 21.9776C46.8073 21.7201 46.6726 21.484 46.4585 21.3348L30.7968 10.4204C30.4951 10.2101 30.0949 10.2101 29.7932 10.4204L14.1315 21.3349C13.9073 21.4911 13.7704 21.7427 13.7567 22.0145C13.7551 22.0272 13.7541 22.0414 13.754 22.0571C13.754 22.0578 13.7539 22.0584 13.7539 22.0591C13.7539 22.0591 13.7539 22.0592 13.7539 22.0593C13.7539 22.0594 13.7539 22.0594 13.7539 22.0595V43.8776C13.7539 43.8777 13.7539 43.8778 13.7539 43.8779V43.8897C13.7539 43.897 13.7548 43.9024 13.755 43.9092C13.7612 44.1814 13.8915 44.4471 14.1315 44.6144L29.7932 55.5288C29.9441 55.6339 30.1196 55.6864 30.295 55.6864C30.4704 55.6864 30.6459 55.6338 30.7968 55.5288L46.4585 44.6144C46.6981 44.4474 46.8285 44.1822 46.835 43.9104C46.8352 43.9032 46.8361 43.8973 46.8361 43.8897V43.8778C46.8361 43.8777 46.8361 43.8776 46.8361 43.8775V22.0595C46.8361 22.0594 46.8361 22.0594 46.8361 22.0593C46.8361 22.0592 46.8361 22.0592 46.8361 22.0591C46.8361 22.0571 46.8358 22.0551 46.8358 22.053ZM21.009 47.2591L15.5127 43.4289V34.6616L21.009 38.4927V47.2591ZM21.009 36.3444L15.5127 32.5134V23.7462L21.0118 27.5792L21.009 36.3444ZM16.1746 22.0592L30.295 12.2188L44.4157 22.0592L38.1262 26.4432L30.7969 21.3349C30.646 21.2297 30.4706 21.1771 30.2951 21.1771C30.1197 21.1771 29.9441 21.2297 29.7933 21.3349L22.464 26.4432L16.1746 22.0592ZM30.295 34.0485L36.5847 38.4317L30.295 42.8159L24.0052 38.4318L30.295 34.0485ZM22.7678 37.1462V28.3797L29.4156 23.7462V32.5134L22.7678 37.1462ZM31.1744 32.5134V23.7462L37.8222 28.3797V37.1462L31.1744 32.5134ZM45.0773 43.4288L30.295 53.7303L22.7678 48.4848V39.7175L29.7932 44.6143C29.9441 44.7195 30.1196 44.7721 30.295 44.7721C30.4704 44.7721 30.646 44.7195 30.7968 44.6143L38.6178 39.1629C38.621 39.1607 38.6245 39.1593 38.6277 39.157L45.0773 34.6615V43.4288ZM45.0773 32.5134L39.581 36.3444L39.5782 27.5792L45.0773 23.7462V32.5134Z" fill="url(#paint0_linear)"/>
</g>
<defs>
<filter id="filter0_d" x="0.513018" y="0.804918" width="59.564" height="71.9055" filterUnits="userSpaceOnUse" color-interpolation-filters="sRGB">
<feFlood flood-opacity="0" result="BackgroundImageFix"/>
<feColorMatrix in="SourceAlpha" type="matrix" values="0 0 0 0 0 0 0 0 0 0 0 0 0 0 0 0 0 0 127 0"/>
<feOffset dy="3.78311"/>
<feGaussianBlur stdDeviation="6.62044"/>
<feColorMatrix type="matrix" values="0 0 0 0 0.996078 0 0 0 0 0.823529 0 0 0 0 0.188235 0 0 0 0.4 0"/>
<feBlend mode="normal" in2="BackgroundImageFix" result="effect1_dropShadow"/>
<feBlend mode="normal" in="SourceGraphic" in2="effect1_dropShadow" result="shape"/>
</filter>
<linearGradient id="paint0_linear" x1="46.8361" y1="1.02397" x2="-1.06023" y2="22.2353" gradientUnits="userSpaceOnUse">
<stop stop-color="#FED230"/>
<stop offset="1" stop-color="#FE8730"/>
</linearGradient>
</defs>
</svg>

<svg width="61" height="73" fill="none" xmlns="http://www.w3.org/2000/svg"><g filter="url(#filter0_d)"><path d="M46.836 22.053a.882.882 0 00-.377-.718L30.797 10.42a.877.877 0 00-1.004 0L14.132 21.335a.881.881 0 00-.378.722V43.89l.001.02a.881.881 0 00.377.704L29.793 55.53a.877.877 0 001.004 0l15.662-10.915a.88.88 0 00.376-.704l.001-.02V22.053zM21.009 47.259l-5.496-3.83v-8.767l5.496 3.83v8.767zm0-10.915l-5.496-3.83v-8.768l5.499 3.833-.003 8.765zM16.175 22.06l14.12-9.84 14.12 9.84-6.289 4.384-7.33-5.108a.876.876 0 00-1.003 0l-7.329 5.108-6.29-4.384zm14.12 11.99l6.29 4.383-6.29 4.384-6.29-4.384 6.29-4.384zm-7.527 3.097V28.38l6.648-4.634v8.767l-6.648 4.633zm8.406-4.633v-8.767l6.648 4.634v8.766l-6.648-4.633zM45.077 43.43l-14.782 10.3-7.527-5.245v-8.767l7.025 4.896a.876.876 0 001.004 0l7.82-5.451.01-.006 6.45-4.495v8.767zm0-10.916l-5.496 3.831-.003-8.765 5.5-3.833v8.767z" fill="url(#paint0_linear)"/></g><defs><linearGradient id="paint0_linear" x1="46.836" y1="1.024" x2="-1.06" y2="22.235" gradientUnits="userSpaceOnUse"><stop stop-color="#FED230"/><stop offset="1" stop-color="#FE8730"/></linearGradient><filter id="filter0_d" x=".513" y=".805" width="59.564" height="71.906" filterUnits="userSpaceOnUse" color-interpolation-filters="sRGB"><feFlood flood-opacity="0" result="BackgroundImageFix"/><feColorMatrix in="SourceAlpha" values="0 0 0 0 0 0 0 0 0 0 0 0 0 0 0 0 0 0 127 0"/><feOffset dy="3.783"/><feGaussianBlur stdDeviation="6.62"/><feColorMatrix values="0 0 0 0 0.996078 0 0 0 0 0.823529 0 0 0 0 0.188235 0 0 0 0.4 0"/><feBlend in2="BackgroundImageFix" result="effect1_dropShadow"/><feBlend in="SourceGraphic" in2="effect1_dropShadow" result="shape"/></filter></defs></svg>
